public/img/common/arrow-r-white.svg

<svg fill="none" height="16" viewBox="0 0 31 16" width="31" xmlns="http://www.w3.org/2000/svg"><path d="m30.7071 8.70711c.3905-.39052.3905-1.02369 0-1.41421l-6.364-6.363966c-.3905-.390524-1.0236-.390524-1.4142 0-.3905.390526-.3905 1.023686 0 1.414216l5.6569 5.65685-5.6569 5.6569c-.3905.3905-.3905 1.0236 0 1.4142.3906.3905 1.0237.3905 1.4142 0zm-30.70710009.29289h30.00000009v-2h-29.99999991z" fill="#fff"/></svg>

<svg width="31" height="16" viewBox="0 0 31 16" fill="none" xmlns="http://www.w3.org/2000/svg">
<path d="M30.7071 8.70711C31.0976 8.31659 31.0976 7.68342 30.7071 7.2929L24.3431 0.928934C23.9526 0.53841 23.3195 0.53841 22.9289 0.928934C22.5384 1.31946 22.5384 1.95262 22.9289 2.34315L28.5858 8L22.9289 13.6569C22.5384 14.0474 22.5384 14.6805 22.9289 15.0711C23.3195 15.4616 23.9526 15.4616 24.3431 15.0711L30.7071 8.70711ZM-8.74228e-08 9L30 9L30 7L8.74228e-08 7L-8.74228e-08 9Z" fill="white"/>
</svg>
